public/img/general/logos/hyundai.svg

<svg width="66" height="37" viewBox="0 0 66 37" fill="none" xmlns="http://www.w3.org/2000/svg">
<path d="M28.7634 0.0749321C15.4763 1.05618 4.78797 6.26792 1.12781 13.5616C0.902339 14.0125 0.557469 14.9144 0.372026 15.5507C0.0671797 16.5453 0.0138148 16.9696 0.000473625 18.4418C-0.0128676 20.471 0.252622 21.571 1.1805 23.4807C4.45577 30.2301 14.4016 35.3891 26.7736 36.7546C29.678 37.0728 35.7909 37.0861 38.5752 36.7679C47.155 35.7867 54.1564 33.2805 59.1561 29.3949C62.0998 27.1009 64.1023 24.3953 64.9775 21.4916C65.4685 19.8473 65.5078 17.3805 65.0569 15.7895C64.3538 13.3361 62.8689 11.0027 60.747 9.02688C55.7741 4.38548 48.0695 1.33568 38.6413 0.275051C36.468 0.0222359 30.9514 -0.083828 28.7634 0.0749321ZM38.6426 4.25207C40.433 4.46419 43.1913 4.95515 44.6762 5.32603C46.3605 5.73694 48.9861 6.62547 48.946 6.75821C48.8666 7.01036 46.3472 8.91949 44.1459 10.405C34.6909 16.7701 27.2519 18.4018 25.8324 14.4367C25.5802 13.7076 25.6069 12.2088 25.8984 11.0688C26.1899 9.92808 27.4767 6.41401 28.0997 5.02185C28.4713 4.22605 28.6034 4.06729 28.9222 4.01392C29.7847 3.8545 36.9056 4.03994 38.6426 4.25207ZM21.6026 5.80365C20.3298 7.55401 18.7916 10.2196 17.0412 13.7337C13.8987 20.0454 12.5459 23.2413 11.1137 27.7633C11.0343 28.0154 9.68152 27.0342 8.34206 25.7741C4.24431 21.9025 3.714 17.2211 6.8832 13.0706C8.87238 10.4851 12.8107 7.92557 17.0939 6.44002C18.4067 5.97575 21.722 5.03453 22.1062 4.9945C22.1729 4.98183 21.9474 5.35271 21.6026 5.80365ZM57.0348 11.3996C58.3609 12.6464 59.4482 14.2373 60.0186 15.7489C60.4161 16.7701 60.4428 16.9689 60.4428 18.5071C60.4428 20.032 60.4161 20.2442 60.0319 21.2521C58.7985 24.5007 55.9475 27.1663 51.3061 29.3942C49.3036 30.3488 46.7841 31.2373 44.5167 31.7676L44.0925 31.8737L44.941 30.6403C47.8454 26.4765 50.2982 21.3181 53.5868 12.4729C54.1171 11.0141 54.5947 9.7413 54.6207 9.64858C54.7141 9.41044 55.6293 10.0868 57.0348 11.3996ZM37.2371 21.637C38.1123 21.9418 38.9348 22.7777 39.2263 23.6528C39.6105 24.7802 39.5311 26.3845 38.9875 28.4664C38.5232 30.2701 37.688 32.7762 37.4759 32.9884C37.2505 33.2138 33.9085 33.3859 31.0842 33.3199C27.8222 33.2272 25.4748 32.9884 22.7299 32.4314C19.8128 31.8477 15.9799 30.6943 15.9272 30.3762C15.8872 30.1907 18.4867 28.4003 20.8735 26.9681C25.6076 24.1171 30.2883 22.0879 33.2721 21.571C33.7097 21.4916 34.214 21.3989 34.3994 21.3722C35.0091 21.2654 36.5741 21.4115 37.2371 21.637Z" fill="white"/>
</svg>

<svg width="66" height="37" fill="none" xmlns="http://www.w3.org/2000/svg"><path d="M28.763.075C15.476 1.056 4.788 6.268 1.128 13.562c-.226.45-.57 1.352-.756 1.989-.305.994-.358 1.419-.372 2.89-.013 2.03.253 3.13 1.18 5.04 3.276 6.75 13.222 11.908 25.594 13.274 2.904.318 9.017.331 11.801.013 8.58-.981 15.581-3.487 20.581-7.373 2.944-2.294 4.946-5 5.822-7.903.49-1.645.53-4.111.079-5.703-.703-2.453-2.188-4.786-4.31-6.762C55.774 4.385 48.069 1.336 38.641.275c-2.173-.253-7.69-.359-9.878-.2zm9.88 4.177c1.79.212 4.548.703 6.033 1.074 1.684.41 4.31 1.3 4.27 1.432-.08.252-2.599 2.161-4.8 3.647-9.455 6.365-16.894 7.997-18.314 4.032-.252-.73-.225-2.228.066-3.368.292-1.14 1.579-4.655 2.202-6.047.371-.796.503-.955.822-1.008.863-.16 7.984.026 9.72.238zm-17.04 1.552c-1.273 1.75-2.811 4.416-4.562 7.93-3.142 6.311-4.495 9.507-5.927 14.03-.08.251-1.432-.73-2.772-1.99-4.098-3.872-4.628-8.553-1.459-12.703 1.99-2.586 5.928-5.145 10.21-6.631 1.314-.464 4.629-1.405 5.013-1.446.067-.012-.159.359-.503.81zM57.035 11.4c1.326 1.246 2.413 2.837 2.984 4.349.397 1.021.424 1.22.424 2.758 0 1.525-.027 1.737-.411 2.745-1.233 3.249-4.084 5.914-8.726 8.142a35.425 35.425 0 01-6.79 2.374l-.423.106.848-1.234c2.904-4.163 5.357-9.322 8.646-18.167.53-1.459 1.008-2.732 1.034-2.824.093-.239 1.008.438 2.414 1.75zM37.237 21.637c.875.305 1.698 1.14 1.99 2.016.384 1.127.304 2.732-.24 4.813-.464 1.804-1.299 4.31-1.511 4.522-.225.226-3.568.398-6.392.332-3.262-.093-5.61-.332-8.354-.889-2.917-.583-6.75-1.737-6.803-2.055-.04-.185 2.56-1.976 4.947-3.408 4.734-2.85 9.414-4.88 12.398-5.397.438-.08.942-.172 1.127-.199.61-.107 2.175.04 2.838.265z" fill="#fff"/></svg>
